app/images/icons/add-partner-icon.svg

<?xml version="1.0" encoding="UTF-8" standalone="no"?>
<svg width="76px" height="76px" viewBox="0 0 76 76" version="1.1" xmlns="http://www.w3.org/2000/svg" xmlns:xlink="http://www.w3.org/1999/xlink" xmlns:sketch="http://www.bohemiancoding.com/sketch/ns">
    <!-- Generator: Sketch 3.1 (8751) - http://www.bohemiancoding.com/sketch -->
    <title>add-partner-icon</title>
    <desc>Created with Sketch.</desc>
    <defs></defs>
    <g id="Page-1" stroke="none" stroke-width="1" fill="none" fill-rule="evenodd" sketch:type="MSPage">
        <g id="add-partner-icon" sketch:type="MSLayerGroup" fill="#0A0B09">
            <path d="M7.6,2.53333333 L58.2666667,2.53333333 C61.066,2.53333333 63.3333333,4.80066667 63.3333333,7.6 L63.3333333,12.6666667 L2.53333333,12.6666667 L2.53333333,7.6 C2.53333333,4.80066667 4.80066667,2.53333333 7.6,2.53333333 L7.6,2.53333333 Z M24.0666667,50.6666667 L7.6,50.6666667 C4.80066667,50.6666667 2.53333333,48.3866667 2.53333333,45.6 L2.53333333,15.2 L63.3333333,15.2 L63.3333333,25.3333333 C63.3333333,26.03 63.9033333,26.6 64.6,26.6 C65.2966667,26.6 65.8666667,26.03 65.8666667,25.3333333 L65.8666667,7.6 C65.8666667,3.40733333 62.4593333,0 58.2666667,0 L7.6,0 C3.40733333,0 0,3.40733333 0,7.6 L0,45.6 C0,49.7939333 3.40733333,53.2 7.6,53.2 L24.0666667,53.2 C24.7633333,53.2 25.3333333,52.63 25.3333333,51.9333333 C25.3333333,51.2366667 24.7633333,50.6666667 24.0666667,50.6666667 L24.0666667,50.6666667 Z" id="Fill-3280" sketch:type="MSShapeGroup"></path>
            <path d="M10.1333333,10.1333333 C11.5266667,10.1333333 12.6666667,8.9946 12.6666667,7.6 C12.6666667,6.20666667 11.5266667,5.06666667 10.1333333,5.06666667 C8.74,5.06666667 7.6,6.20666667 7.6,7.6 C7.6,8.9946 8.74,10.1333333 10.1333333,10.1333333" id="Fill-3281" sketch:type="MSShapeGroup"></path>
            <path d="M17.7333333,10.1333333 C19.1266667,10.1333333 20.2666667,8.9946 20.2666667,7.6 C20.2666667,6.20666667 19.1266667,5.06666667 17.7333333,5.06666667 C16.34,5.06666667 15.2,6.20666667 15.2,7.6 C15.2,8.9946 16.34,10.1333333 17.7333333,10.1333333" id="Fill-3282" sketch:type="MSShapeGroup"></path>
            <path d="M25.3333333,10.1333333 C26.7266667,10.1333333 27.8666667,8.9946 27.8666667,7.6 C27.8666667,6.20666667 26.7266667,5.06666667 25.3333333,5.06666667 C23.94,5.06666667 22.8,6.20666667 22.8,7.6 C22.8,8.9946 23.94,10.1333333 25.3333333,10.1333333" id="Fill-3283" sketch:type="MSShapeGroup"></path>
            <path d="M54.4666667,73.4666667 C43.9913333,73.4666667 35.4666667,64.9432667 35.4666667,54.4666667 C35.4666667,43.9926 43.9913333,35.4666667 54.4666667,35.4666667 C64.942,35.4666667 73.4666667,43.9926 73.4666667,54.4666667 C73.4666667,64.9432667 64.942,73.4666667 54.4666667,73.4666667 L54.4666667,73.4666667 Z M54.4666667,32.9333333 C42.598,32.9333333 32.9333333,42.5853333 32.9333333,54.4666667 C32.9333333,66.3353333 42.598,76 54.4666667,76 C66.3353333,76 76,66.3353333 76,54.4666667 C76,42.5853333 66.3353333,32.9333333 54.4666667,32.9333333 L54.4666667,32.9333333 Z" id="Fill-3284" sketch:type="MSShapeGroup"></path>
            <path d="M63.3333333,53.2 L55.7333333,53.2 L55.7333333,45.6 C55.7333333,44.9033333 55.1633333,44.3333333 54.4666667,44.3333333 C53.77,44.3333333 53.2,44.9033333 53.2,45.6 L53.2,53.2 L45.6,53.2 C44.9033333,53.2 44.3333333,53.77 44.3333333,54.4666667 C44.3333333,55.1633333 44.9033333,55.7333333 45.6,55.7333333 L53.2,55.7333333 L53.2,63.3333333 C53.2,64.03 53.77,64.6 54.4666667,64.6 C55.1633333,64.6 55.7333333,64.03 55.7333333,63.3333333 L55.7333333,55.7333333 L63.3333333,55.7333333 C64.03,55.7333333 64.6,55.1633333 64.6,54.4666667 C64.6,53.77 64.03,53.2 63.3333333,53.2" id="Fill-3285" sketch:type="MSShapeGroup"></path>
        </g>
    </g>
</svg>

<svg width="76" height="76" viewBox="0 0 76 76" xmlns="http://www.w3.org/2000/svg">
    <desc>
        Created with Sketch.
    </desc>
    <g fill="#0A0B09">
        <path d="M7.6 2.533h50.667c2.8 0 5.066 2.268 5.066 5.067v5.067h-60.8V7.6c0-2.8 2.268-5.067 5.067-5.067zm16.467 48.134H7.6c-2.8 0-5.067-2.28-5.067-5.067V15.2h60.8v10.133c0 .697.57 1.267 1.267 1.267s1.267-.57 1.267-1.267V7.6c0-4.193-3.408-7.6-7.6-7.6H7.6C3.407 0 0 3.407 0 7.6v38c0 4.194 3.407 7.6 7.6 7.6h16.467c.696 0 1.266-.57 1.266-1.267 0-.696-.57-1.266-1.266-1.266z"/>
        <path d="M10.133 10.133c1.394 0 2.534-1.138 2.534-2.533 0-1.393-1.14-2.533-2.534-2.533C8.74 5.067 7.6 6.207 7.6 7.6c0 1.395 1.14 2.533 2.533 2.533"/>
        <path d="M17.733 10.133c1.394 0 2.534-1.138 2.534-2.533 0-1.393-1.14-2.533-2.534-2.533-1.393 0-2.533 1.14-2.533 2.533 0 1.395 1.14 2.533 2.533 2.533"/>
        <path d="M25.333 10.133c1.394 0 2.534-1.138 2.534-2.533 0-1.393-1.14-2.533-2.534-2.533-1.393 0-2.533 1.14-2.533 2.533 0 1.395 1.14 2.533 2.533 2.533"/>
        <path d="M54.467 73.467c-10.476 0-19-8.524-19-19 0-10.474 8.524-19 19-19 10.475 0 19 8.526 19 19 0 10.476-8.525 19-19 19zm0-40.534c-11.87 0-21.534 9.652-21.534 21.534C32.933 66.335 42.598 76 54.467 76 66.335 76 76 66.335 76 54.467c0-11.882-9.665-21.534-21.533-21.534z"/>
        <path d="M63.333 53.2h-7.6v-7.6c0-.697-.57-1.267-1.266-1.267-.697 0-1.267.57-1.267 1.267v7.6h-7.6c-.697 0-1.267.57-1.267 1.267 0 .696.57 1.266 1.267 1.266h7.6v7.6c0 .697.57 1.267 1.267 1.267.696 0 1.266-.57 1.266-1.267v-7.6h7.6c.697 0 1.267-.57 1.267-1.266 0-.697-.57-1.267-1.267-1.267"/>
    </g>
</svg>
